packages/katcn/src/icons/svg/image.svg

<svg width="24" height="25" viewBox="0 0 24 25" fill="none" xmlns="http://www.w3.org/2000/svg">
<path d="M22.6315 17.9969L17.0534 8.64763C16.5463 7.82571 15.6335 7.31201 14.6193 7.31201C13.6052 7.31201 12.6924 7.82571 12.1853 8.64763L8.02708 15.5312C7.72282 16.0449 7.92566 16.6613 8.33134 16.9695C8.83843 17.2778 9.44695 17.0723 9.75121 16.6613L13.9094 9.77777C14.1122 9.46955 14.4165 9.36681 14.6193 9.36681C14.8222 9.36681 15.1264 9.36681 15.3293 9.77777L20.9074 19.1271C21.1102 19.538 21.0088 19.8463 20.9074 19.949C20.8059 20.0517 20.6031 20.36 20.1974 20.36H3.86888C3.4632 20.36 3.26036 20.0517 3.15894 19.949C3.05752 19.8463 2.9561 19.538 3.15894 19.1271L5.69443 15.0175C5.89727 14.7093 6.20153 14.6065 6.50579 14.6065C7.01288 14.7093 7.6214 14.2983 7.6214 13.6819C7.72282 13.1682 7.31714 12.5517 6.70863 12.5517C5.59301 12.449 4.4774 12.9627 3.9703 13.8874L1.43481 17.9969C0.927714 18.9216 0.826294 19.949 1.33339 20.8737C1.84049 21.7983 2.75326 22.312 3.76746 22.312H20.096C21.1102 22.312 22.023 21.7983 22.5301 20.8737C23.1386 19.949 23.1386 18.9216 22.6315 17.9969Z" fill="black"/>
<path d="M6 9.31201C8.2439 9.31201 10 7.48069 10 5.3602C10 3.23972 8.2439 1.31201 6 1.31201C3.7561 1.31201 2 3.14334 2 5.26382C2 7.3843 3.7561 9.31201 6 9.31201ZM6 3.23972C7.17073 3.23972 8.04878 4.20358 8.04878 5.26382C8.04878 6.32406 7.17073 7.3843 6 7.3843C4.82927 7.3843 3.95122 6.42044 3.95122 5.3602C3.95122 4.29996 4.82927 3.23972 6 3.23972Z" fill="black"/>
</svg>

<svg xmlns="http://www.w3.org/2000/svg" fill="none" viewBox="0 0 24 25"><path fill="#000" d="m22.632 17.997-5.579-9.35a2.85 2.85 0 0 0-2.434-1.335 2.85 2.85 0 0 0-2.434 1.336L8.027 15.53c-.304.514-.101 1.13.304 1.438.507.309 1.116.103 1.42-.308l4.158-6.883a.88.88 0 0 1 .71-.411c.203 0 .507 0 .71.41l5.578 9.35c.203.411.102.72 0 .822-.101.103-.304.411-.71.411H3.87c-.406 0-.609-.308-.71-.411s-.203-.411 0-.822l2.535-4.11c.203-.308.508-.41.812-.41.507.102 1.115-.309 1.115-.925.102-.514-.304-1.13-.912-1.13-1.116-.103-2.232.41-2.739 1.335l-2.535 4.11c-.507.925-.609 1.952-.102 2.877a2.73 2.73 0 0 0 2.434 1.438h16.329a2.73 2.73 0 0 0 2.434-1.438c.609-.925.609-1.952.101-2.877M6 9.312c2.244 0 4-1.831 4-3.952S8.244 1.312 6 1.312 2 3.143 2 5.264s1.756 4.048 4 4.048M6 3.24c1.17 0 2.049.964 2.049 2.024S7.17 7.384 6 7.384A2.05 2.05 0 0 1 3.951 5.36c0-1.06.878-2.12 2.049-2.12"/></svg>
